icons/svg/survey-filled.svg

<svg width="32" height="32" viewBox="0 0 32 32" fill="none" xmlns="http://www.w3.org/2000/svg">
<path d="M17.4158 6.5H6.21692C3.45514 6.5 1.21692 8.74001 1.2169 11.5011L1.21681 21C1.21681 23.0251 1.978 24.5549 3.16935 25.4724C3.09419 25.564 3.0101 25.6579 2.91721 25.7526C2.57112 26.1053 2.15925 26.4107 1.76961 26.6056C1.54973 26.7155 1.17871 26.9574 1.04543 27.4303C0.896029 27.9604 1.14663 28.3814 1.34143 28.5958C1.68869 28.9778 2.23861 29.1751 2.6878 29.2803C3.68423 29.5138 5.13664 29.5091 6.58819 28.9285C7.51987 28.5558 8.37372 28.0801 9.1108 27.6694C9.36233 27.5293 9.60069 27.3964 9.82347 27.2781C10.7521 26.785 11.4761 26.5 12.2168 26.5H24.2195C26.9817 26.5 29.2169 24.2606 29.2169 21.5V15C29.2169 14.9062 29.2038 14.8141 29.1786 14.7259C29.0025 15.0395 28.76 15.3127 28.4661 15.5255C28.053 15.8247 27.5589 15.9895 27.0507 15.9995C26.5429 16.0095 26.0427 15.8644 25.6178 15.5814L25.603 15.5716L24 14.4782L22.387 15.5783L22.3822 15.5815C21.9572 15.8645 21.4569 16.0095 20.9493 15.9995C20.4411 15.9895 19.947 15.8247 19.5339 15.5255C19.1214 15.2268 18.81 14.809 18.6417 14.3279C18.4734 13.8468 18.4564 13.3258 18.593 12.8347L18.6046 12.7931L19.2082 10.9224L17.9004 9.7989C17.525 9.48682 17.2492 9.07134 17.1074 8.60385C16.9594 8.11559 16.9645 7.59372 17.1221 7.10843C17.1923 6.89215 17.2914 6.68762 17.4158 6.5Z" fill="#0F0F0F"/>
<path d="M23.4493 3.8904L22.6787 6.12066H20.5286L20.5082 6.12149C20.2336 6.13267 19.9689 6.22765 19.7498 6.39371C19.5303 6.56003 19.3675 6.78948 19.2826 7.05074C19.1976 7.31239 19.1949 7.59373 19.2747 7.85698C19.3518 8.11121 19.5024 8.3369 19.7075 8.50563L21.4025 9.96183L20.6566 12.2737L20.6511 12.2934C20.5775 12.5581 20.5867 12.839 20.6774 13.0984C20.7681 13.3578 20.936 13.5831 21.1584 13.7441C21.3812 13.9054 21.6476 13.9944 21.9217 13.9997C22.1956 14.0051 22.4654 13.9269 22.6944 13.7744L24.7168 12.395L26.73 13.7682L26.7392 13.7743C26.9682 13.9268 27.238 14.0051 27.5119 13.9997C27.786 13.9944 28.0524 13.9054 28.2751 13.7441C28.4975 13.5831 28.6655 13.3578 28.7562 13.0984C28.8469 12.8391 28.8561 12.5581 28.7825 12.2934L28.7771 12.2739L28.0316 9.95981L29.7259 8.50586C29.931 8.3371 30.0817 8.11132 30.1589 7.85698C30.2387 7.59373 30.236 7.31239 30.151 7.05074C30.0661 6.78948 29.9033 6.56003 29.6838 6.39371C29.4647 6.22764 29.2 6.13267 28.9254 6.12149L28.905 6.12066H26.7711L25.9839 3.8932L25.9795 3.88099C25.8842 3.62238 25.712 3.39934 25.4861 3.24185C25.2597 3.08403 24.9909 3 24.7161 3C24.4413 3 24.1725 3.08404 23.9461 3.24185C23.7202 3.39934 23.548 3.62238 23.4528 3.88099L23.4493 3.8904Z" fill="#0F0F0F"/>
</svg>

<svg xmlns="http://www.w3.org/2000/svg" width="32" height="32" viewBox="0 0 32 32"><path d="M17.416 6.5h-11.2c-2.76 0-5 2.24-5 5.001V21c0 2.025.762 3.555 1.953 4.472q-.113.138-.252.28a4.5 4.5 0 0 1-1.147.854c-.22.11-.591.351-.725.824-.149.53.102.951.296 1.166.348.382.898.58 1.347.684.996.234 2.449.23 3.9-.352.932-.372 1.786-.848 2.523-1.259.251-.14.49-.273.712-.39.93-.494 1.653-.779 2.394-.779H24.22a5 5 0 0 0 4.997-5V15a1 1 0 0 0-.038-.274 2.496 2.496 0 0 1-3.561.855l-.015-.01L24 14.479l-1.613 1.1-.005.004a2.497 2.497 0 0 1-3.789-2.747l.012-.042.603-1.87L17.9 9.798a2.496 2.496 0 0 1-.484-3.299M23.45 3.89l-.771 2.23h-2.15l-.02.001a1.346 1.346 0 0 0-.802 2.385l1.695 1.456-.745 2.312-.006.02a1.346 1.346 0 0 0 2.043 1.48l2.023-1.379 2.013 1.373.01.006a1.346 1.346 0 0 0 2.043-1.48l-.006-.02-.745-2.314 1.694-1.454a1.347 1.347 0 0 0-.8-2.385H26.77l-.787-2.228-.005-.012a1.347 1.347 0 0 0-2.526 0z"/></svg>
